!!!COM: Palestrina, Giovanni Perluigi da
!!!OPR: Missa De Beata Marie Virginis (II)
!!!OMD: Credo
!!!OTL: Et vitam
**kern	**kern	**kern	**kern	**kern
*Ibass	*Itenor	*Itenor	*Icalto	*Icant
!Bassus	!Tenor 2	!Tenor 1	!Altus	!Cantus
*clefF4	*clefGv2	*clefGv2	*clefG2	*clefG2
*k[]	*k[]	*k[]	*k[]	*k[]
*G:mix	*G:mix	*G:mix	*G:mix	*G:mix
*M4/2	*M4/2	*M4/2	*M4/2	*M4/2
=134	=134	=134	=134	=134
0r	0r	0r	1c	0r
.	.	.	2e	.
.	.	.	2f	.
=135	=135	=135	=135	=135
0r	0r	0r	1.g	2r
.	.	.	.	2g
.	.	.	.	2b
.	.	.	4f	2cc
.	.	.	4e	.
=136	=136	=136	=136	=136
0r	0r	0r	2f	1dd
.	.	.	2g	.
.	.	.	2c	1ee
.	.	.	[2cc	.
=137	=137	=137	=137	=137
0r	1G	0r	2cc]	1.dd
.	.	.	2.b	.
.	2B	.	.	.
.	.	.	4a	.
.	2c	.	[2g	4cc
.	.	.	.	4b
=138	=138	=138	=138	=138
1r	1d	0r	2g]	1a
.	.	.	2f#	.
1C	[1e	.	[1g	2.cc
.	.	.	.	8b
.	.	.	.	8a
=139	=139	=139	=139	=139
2E	2e]	1r	2g]	2g
2F	4d	.	4f	2a
.	4c	.	4e	.
[1G	4B	2r	2.d	1b
.	4c	.	.	.
.	2d	2G	.	.
.	.	.	4c	.
=140	=140	=140	=140	=140
2G]	2G	2B	4d	2r
.	.	.	4e	.
4F	1c	2c	2.f	2a
4E	.	.	.	.
2F	.	1d	.	2a
.	.	.	4e	.
2G	2B	.	2d	2b
=141	=141	=141	=141	=141
1C	2.G	1e	2c	1cc
.	.	.	2.g	.
.	4A	.	.	.
2.D	4B	1d	.	2b
.	4c	.	8f#	.
.	.	.	8e	.
.	2d	.	4f#	[2a
4E	.	.	4g	.
=142	=142	=142	=142	=142
2F	2A	2c	2a	2a]
2G	4B	2B	1g	1dd
.	4c	.	.	.
1D	2.d	1A	.	.
.	.	.	2f#	2a
.	4d	.	.	.
=143	=143	=143	=143	=143
[0G	[0d	[0G	[0g	[0b
=144	=144	=144	=144	=144
0G]	0d]	0G]	0g]	0b]
=145	=145	=145	=145	=145
1r	0r	1G	0r	0r
1D	.	[1d	.	.
=146	=146	=146	=146	=146
2.G	0r	2d]	0r	1r
.	.	2B	.	.
4A	.	.	.	.
2B	.	2d	.	1g
[2c	.	2e	.	.
=147	=147	=147	=147	=147
4c]	0r	0d	2r	1.dd
8B	.	.	.	.
8A	.	.	.	.
2B	.	.	2d	.
1G	.	.	2.g	.
.	.	.	.	2b
.	.	.	4a	.
=148	=148	=148	=148	=148
2r	0r	1.G	2b	2dd
2C	.	.	2.cc	2ee
1G	.	.	.	1dd
.	.	.	8b	.
.	.	.	8a	.
.	.	[2g	2b	.
=149	=149	=149	=149	=149
2E	1r	2g]	2g	1cc
2F	.	4f	2.a	.
.	.	4e	.	.
2G	1G	2d	.	2b
.	.	.	4g	.
2E	.	2e	[2g	2g
=150	=150	=150	=150	=150
1D	1.d	2r	2g]	1a
.	.	2A	2f#	.
2.G	.	2B	2g	1g
.	2B	[2d	2d	.
4A	.	.	.	.
=151	=151	=151	=151	=151
2B	2d	2d]	2.g	1r
2c	2e	2c	.	.
.	.	.	4a	.
1G	1d	4B	4b	1g
.	.	4G	4cc	.
.	.	2g	[2b	.
=152	=152	=152	=152	=152
2A	2c	2e	4b]	1cc
.	.	.	4a	.
2F	2A	2f	2.a	.
1G	1B	[1d	.	2.b
.	.	.	4g	.
.	.	.	[2g	.
.	.	.	.	4cc
=153	=153	=153	=153	=153
0D	0A	0d]	2g]	0dd
.	.	.	4f#	.
.	.	.	4e	.
.	.	.	1f#	.
=154	=154	=154	=154	=154
[0G	[0G	[0d	[0g	[0b
=155	=155	=155	=155	=155
0G]	0G]	0d]	0g]	0b]
==	==	==	==	==
*-	*-	*-	*-	*-
!!!CDT: 1525/^1526/-1594/2/2
!!!OCY: Italia
!!!AGN: Mass (Paraphrase)
!!!AST: renaissance, vocal
!!!ASW: Gregorian Mass
!!!PWK: Masses, Book Mantuan I
!!!RNB: Cadence finals: D
!!!YOR: Le Opere Complete, v. 18, p. 126
!!!YOO: Rome, Italy: Fratelli Scalera
!!!END: 1992//
!!!EED: John Miller
!!!YEC: Copyright 2000, John Miller
!!!YEN: United States of America
!!!YEM: Rights to all derivative electronic formats reserved.
!!!YEM: Refer to licensing agreement for further details.
!!!YEM: This file must be accompanied by the licensing agreement.
!!!YEM: A copy of the licensing agreement may be found at http://www.music-cog.ohio-state.edu/HumdrumDatabases/Palestrina/license.txt
!!!EMD: converted to Humdrum by Bret Aarden
